X:1
T:Torn Sail, 12.12.12.12
T:Torn Sail, 12.12.12.12
T:George William Warren, 1865
T:Public Domain Courtesy of the Cyber Hymnal™
C:George William Warren, 1865
Z:Public Domain
Z:Courtesy of the Cyber Hymnal™
%%score ( 1 2 ) ( 3 4 )
L:1/8
Q:1/4=116
M:3/4
K:F
V:1 treble 
V:2 treble 
V:3 bass 
V:4 bass 
V:1
"^Allegro Agitato" [FA]2 | [FA]2 [DF]2 [EG]2 | [FA]3 [Fd] [Fd]2 | [Gd]2 !>![Gc]3 [GB] | %4
 ([FA]>[GB]) [FA]2 z [FA] | [GA]2 [Ge]2 [GA]2 | [FA]3 [GA] A2 | [DA]2 !>![DG]3 [DF] | %8
 [DF]2 [^CE]2 z [FA] | [FA]2 [DF]2 [EG]2 | [FA]3 [Fd] [Fd]2 | [Gd]2 !>![Gc]3 [GB] | %12
 ([FA]>[GB]) [FA]2 z [CA] |"^piu lento" [CG]2 [CF]2 [EG]2 | [FA]2 [Fc]4 | [B,D]4 z2 | %16
 [CF]3 z [EG][EA] | [EG]2 [CF]4 |] %18
V:2
 x2 | x6 | x6 | x6 | x6 | x6 | x4 A2 | x6 | x6 | x6 | x6 | x6 | x6 | x6 | x6 | x6 | x6 | x6 |] %18
V:3
 [D,A,]2 | [D,A,]2 [D,A,]2 [D,A,]2 | [D,D]3 [D,A,] [D,A,]2 | [D,B,]2 !>![D,B,]3 [D,^C] | %4
 (D>^C) [D,D]2 z [D,D] | [^C,E]2 [C,A,]2 [A,,A,^C]2 | [D,D]3 [E,^C] [F,D]2 | %7
 [F,A,]2 !>![G,B,]3 [^G,=B,] | A,2 [A,,A,]2 z [D,A,] | [D,A,]2 [D,A,]2 [D,A,]2 | %10
 [D,D]3 [D,A,] [D,A,]2 | [D,B,]2 !>![D,B,]3 [D,^C] | (D>^C) [D,D]2 z [F,A,] | %13
 [E,B,]2 [F,A,]2 [C,C]2 | [F,C]2 [A,,C]4 | [B,,F,]4 z2 | [F,A,]3 z [C,B,][C,B,] | %17
 [C,B,]2 [F,,A,]4 |] %18
V:4
 x2 | x6 | x6 | x6 | D,2 x4 | x6 | x6 | x6 | A,2 x4 | x6 | x6 | x6 | D,2 x4 | x6 | x6 | x6 | x6 | %17
 x6 |] %18

